X: 16130
T: Green Grow The Rushes
R: barndance
M: 4/4
K: Gmajor
|:Gzgf ged2|eaag agef|gded BdBA|GBAG EGDE:|
|:G2BG dGBG|A2Bd efgz|G2BG dGBG|ABAG EGDE:|

